svg/emoji_u1f995.svg

<?xml version="1.0" encoding="utf-8"?>
<!-- Generator: Adobe Illustrator 24.1.2, SVG Export Plug-In . SVG Version: 6.00 Build 0)  -->
<svg version="1.1" id="Layer_2" xmlns="http://www.w3.org/2000/svg" xmlns:xlink="http://www.w3.org/1999/xlink" x="0px" y="0px"
	 viewBox="0 0 128 128" style="enable-background:new 0 0 128 128;" xml:space="preserve">
<path style="fill:#FFFFFF;" d="M32.6,94.17"/>
<path style="fill:#04841F;" d="M34.99,79.34l-5.49,3.1c0,0,0.56,13.09-0.99,18.16c-1.55,5.07-3.8,8.73-4.79,10.14
	s-3.8,2.5-2.67,6.05c0.67,2.1,3.8,2.82,8.87,2.67c5.07-0.14,14.36-6.9,14.36-6.9l2.96-14.64l17.6,6.76c0,0-0.42,2.25-0.7,3.1
	c-0.28,0.84-1.97,3.24-1.83,4.5c0.14,1.27,1.8,2.01,9.71,1.83c7.78-0.18,9.15-9.57,9.15-9.57l-6.48-14.22L34.99,79.34z"/>
<path style="fill:#02AB47;" d="M20.3,11.48c1.84-0.77,3.33-7.65,10.42-6.57c7.23,1.1,6.01,7.27,6.76,8.02
	c0.75,0.75,6.39,2.77,6.21,7.13c-0.19,4.34-1.79,8.21-6.68,9.06s-10.42-0.94-12.86-0.28c-2.44,0.66-4.69,3.33-4.22,7.6
	c0.27,2.43,2.84,15.4,11.17,22.24c9.48,7.79,14.83,7.41,26.84,7.98c12.01,0.56,19.85,2.49,26.94,8.82
	c5.05,4.51,9.21,17.15,22.15,14.55c11.92-2.39,5.82-14.73-2.16-16.52c-4.6-1.03-9.01-0.94-9.1-2.63c-0.09-1.69,3.34-3.41,9.34-3.14
	c7.32,0.33,18.25,6.01,18.07,16.94c-0.18,10.63-10.23,14.83-10.23,14.83l-12.29,3.47l-12.68,2.11c0,0,0.18,2.12,1.58,4.75
	s3.1,7.88,1.65,10.63c-0.94,1.78-3.27,2.43-9.68,2.5c-5.22,0.06-9.94-0.67-10.1-2.64c-0.19-2.35,0.83-3.18,2.25-4.15
	c1.5-1.03,1.28-1.61,1.48-3.17c0.2-1.56-0.1-4.44-0.53-5.81c-0.42-1.34-1.65-3.31-1.65-3.31l-22.63,0.21c0,0-0.38,0.84-0.56,4.5
	c-0.19,3.66,0.55,8.77-0.09,10.23c-0.89,2.02-3.57,3.94-10.14,4.04c-6.57,0.09-10.61-1.5-10.32-5.07c0.28-3.57,3-4.13,3.94-5.73
	c0.94-1.6,3.24-7.27,3.47-9.71c0.2-2.07-0.19-4.93-0.09-6.52S33.07,84.5,33.07,84.5s-7.51-9.48-10.79-12.86
	c-3.07-3.16-9.1-10.7-9.1-10.7S4.73,47.05,5.76,33.91S13.55,14.3,20.3,11.48z"/>
<path style="fill:#BDCE46;" d="M12.33,32.25c3.07-7.3,8.66-9.43,11.26-10.28s7.88-1.55,10.14-1.9s9.92-0.84,9.92-0.84
	s0.24,0.59,0.14,1.79c-0.11,1.34-0.56,2.01-0.56,2.01s-8.45,1.2-8.45,2.75s2.46,1.41,3.45,1.41s2.96-0.07,2.96-0.07
	s-0.46,1.34-2.99,2.04c-2.51,0.7-6.3,0.63-9.47,0.77s-5.21,0.7-6.12,1.9c-0.92,1.2-4.36,3.8-2.46,17.46s11.3,28.88,13.55,33.08
	c0.81,1.51,3.55,4.96,3.7,6.23c0.06,0.58-0.59,1.91-0.81,3.73c-0.26,2.17-0.11,4.82-0.11,4.82s-3.04-3.97-4.36-6.41
	c-2.11-3.87-2.6-7-2.6-7s-11.19-10.8-16.26-21.72S9.37,39.29,12.33,32.25z"/>
<path style="fill:#303030;" d="M35.2,18.38c0.03,1.61-1.67,2.84-3.55,2.39c-1.2-0.28-1.93-1.29-1.69-2.89
	c0.24-1.59,1.11-2.65,2.57-2.82C34.04,14.9,35.17,16.23,35.2,18.38z"/>
<path style="fill:#BDCE46;" d="M49.88,106.86c0,0-0.21-3.31,1.06-4.96c0.65-0.85,1.13-1.34,1.13-1.34s6.86,0.51,9.96,0.6
	c3.8,0.11,10.84-0.14,10.84-0.14s0.25,1.07,0.6,2.57c0.42,1.83,1.16,3.66,1.16,3.66s-6.12,0.66-12.53,0.56
	C55.09,107.71,49.88,106.86,49.88,106.86z"/>
<path style="fill:#BDCE46;" d="M87.12,101.76c0,0,0.32,0.81,0.46,1.62c0.13,0.72,0.32,1.79,0.32,1.79s11.09,0.28,19.32-1.97
	c8.24-2.25,12.92-8.35,13.87-10.21c0.99-1.94,1.57-3.84,0.53-2.43c-2.04,2.78-5.53,7.5-14.39,9.75S87.12,101.76,87.12,101.76z"/>
<ellipse transform="matrix(0.1435 -0.9896 0.9896 0.1435 -33.491 116.4118)" style="fill:#7CDB8A;" cx="50.51" cy="77.55" rx="2.33" ry="2.33"/>
<ellipse transform="matrix(0.2173 -0.9761 0.9761 0.2173 -26.5924 118.4635)" style="fill:#7CDB8A;" cx="60.57" cy="75.81" rx="2.01" ry="1.86"/>
<ellipse style="fill:#7CDB8A;" cx="72.55" cy="82.33" rx="2.22" ry="2.29"/>
<ellipse style="fill:#7CDB8A;" cx="69.19" cy="74.83" rx="1.68" ry="1.76"/>
<ellipse style="fill:#7CDB8A;" cx="62.38" cy="83.1" rx="1.76" ry="1.87"/>
<ellipse style="fill:#7CDB8A;" cx="80.1" cy="76.93" rx="1.64" ry="1.84"/>
<ellipse transform="matrix(0.9969 -0.0791 0.0791 0.9969 -6.549 6.7954)" style="fill:#7CDB8A;" cx="82.52" cy="86.08" rx="1.48" ry="1.45"/>
<ellipse transform="matrix(0.2111 -0.9775 0.9775 0.2111 -34.9251 95.6961)" style="fill:#7CDB8A;" cx="41.82" cy="69.48" rx="1.76" ry="1.55"/>
<ellipse transform="matrix(0.2087 -0.978 0.978 0.2087 -24.8379 108.0394)" style="fill:#7CDB8A;" cx="54.34" cy="69.37" rx="1.62" ry="1.48"/>
</svg>

<?xml version="1.0" encoding="UTF-8" standalone="no"?>
<!DOCTYPE svg PUBLIC "-//W3C//DTD SVG 1.1//EN" "http://www.w3.org/Graphics/SVG/1.1/DTD/svg11.dtd">
<svg width="100%" height="100%" viewBox="0 0 128 128" version="1.1" xmlns="http://www.w3.org/2000/svg" xmlns:xlink="http://www.w3.org/1999/xlink" xml:space="preserve" xmlns:serif="http://www.serif.com/" style="fill-rule:evenodd;clip-rule:evenodd;stroke-linejoin:round;stroke-miterlimit:2;">
    <path d="M34.99,79.34L29.5,82.44C29.5,82.44 30.06,95.53 28.51,100.6C26.96,105.67 24.71,109.33 23.72,110.74C22.73,112.15 19.92,113.24 21.05,116.79C21.72,118.89 24.85,119.61 29.92,119.46C34.99,119.32 44.28,112.56 44.28,112.56L47.24,97.92L64.84,104.68C64.84,104.68 64.42,106.93 64.14,107.78C63.86,108.62 62.17,111.02 62.31,112.28C62.45,113.55 64.11,114.29 72.02,114.11C79.8,113.93 81.17,104.54 81.17,104.54L74.69,90.32L34.99,79.34Z" style="fill:rgb(72,118,40);fill-rule:nonzero;"/>
    <path d="M20.3,11.48C22.14,10.71 23.63,3.83 30.72,4.91C37.95,6.01 36.73,12.18 37.48,12.93C38.23,13.68 43.87,15.7 43.69,20.06C43.5,24.4 41.9,28.27 37.01,29.12C32.12,29.97 26.59,28.18 24.15,28.84C21.71,29.5 19.46,32.17 19.93,36.44C20.2,38.87 22.77,51.84 31.1,58.68C40.58,66.47 45.93,66.09 57.94,66.66C69.95,67.22 77.79,69.15 84.88,75.48C89.93,79.99 94.09,92.63 107.03,90.03C118.95,87.64 112.85,75.3 104.87,73.51C100.27,72.48 95.86,72.57 95.77,70.88C95.68,69.19 99.11,67.47 105.11,67.74C112.43,68.07 123.36,73.75 123.18,84.68C123,95.31 112.95,99.51 112.95,99.51L100.66,102.98L87.98,105.09C87.98,105.09 88.16,107.21 89.56,109.84C90.96,112.47 92.66,117.72 91.21,120.47C90.27,122.25 87.94,122.9 81.53,122.97C76.31,123.03 71.59,122.3 71.43,120.33C71.24,117.98 72.26,117.15 73.68,116.18C75.18,115.15 74.96,114.57 75.16,113.01C75.36,111.45 75.06,108.57 74.63,107.2C74.21,105.86 72.98,103.89 72.98,103.89L50.35,104.1C50.35,104.1 49.97,104.94 49.79,108.6C49.6,112.26 50.34,117.37 49.7,118.83C48.81,120.85 46.13,122.77 39.56,122.87C32.99,122.96 28.95,121.37 29.24,117.8C29.52,114.23 32.24,113.67 33.18,112.07C34.12,110.47 36.42,104.8 36.65,102.36C36.85,100.29 36.46,97.43 36.56,95.84C36.66,94.25 33.07,84.5 33.07,84.5C33.07,84.5 25.56,75.02 22.28,71.64C19.21,68.48 13.18,60.94 13.18,60.94C13.18,60.94 4.73,47.05 5.76,33.91C6.79,20.77 13.55,14.3 20.3,11.48Z" style="fill:rgb(111,160,59);fill-rule:nonzero;"/>
    <path d="M12.33,32.25C15.4,24.95 20.99,22.82 23.59,21.97C26.19,21.12 31.47,20.42 33.73,20.07C35.99,19.72 43.65,19.23 43.65,19.23C43.65,19.23 43.89,19.82 43.79,21.02C43.68,22.36 43.23,23.03 43.23,23.03C43.23,23.03 34.78,24.23 34.78,25.78C34.78,27.33 37.24,27.19 38.23,27.19C39.22,27.19 41.19,27.12 41.19,27.12C41.19,27.12 40.73,28.46 38.2,29.16C35.69,29.86 31.9,29.79 28.73,29.93C25.56,30.07 23.52,30.63 22.61,31.83C21.69,33.03 18.25,35.63 20.15,49.29C22.05,62.95 31.45,78.17 33.7,82.37C34.51,83.88 37.25,87.33 37.4,88.6C37.46,89.18 36.81,90.51 36.59,92.33C36.33,94.5 36.48,97.15 36.48,97.15C36.48,97.15 33.44,93.18 32.12,90.74C30.01,86.87 29.52,83.74 29.52,83.74C29.52,83.74 18.33,72.94 13.26,62.02C8.19,51.1 9.37,39.29 12.33,32.25Z" style="fill:rgb(204,215,97);fill-rule:nonzero;"/>
    <path d="M35.2,18.38C35.23,19.99 33.53,21.22 31.65,20.77C30.45,20.49 29.72,19.48 29.96,17.88C30.2,16.29 31.07,15.23 32.53,15.06C34.04,14.9 35.17,16.23 35.2,18.38Z" style="fill:rgb(33,33,33);fill-rule:nonzero;"/>
    <path d="M49.88,106.86C49.88,106.86 49.67,103.55 50.94,101.9C51.59,101.05 52.07,100.56 52.07,100.56C52.07,100.56 58.93,101.07 62.03,101.16C65.83,101.27 72.87,101.02 72.87,101.02C72.87,101.02 73.12,102.09 73.47,103.59C73.89,105.42 74.63,107.25 74.63,107.25C74.63,107.25 68.51,107.91 62.1,107.81C55.09,107.71 49.88,106.86 49.88,106.86Z" style="fill:rgb(204,215,97);fill-rule:nonzero;"/>
    <path d="M87.12,101.76C87.12,101.76 87.44,102.57 87.58,103.38C87.71,104.1 87.9,105.17 87.9,105.17C87.9,105.17 98.99,105.45 107.22,103.2C115.46,100.95 120.14,94.85 121.09,92.99C122.08,91.05 122.66,89.15 121.62,90.56C119.58,93.34 116.09,98.06 107.23,100.31C98.37,102.56 87.12,101.76 87.12,101.76Z" style="fill:rgb(204,215,97);fill-rule:nonzero;"/>
    <g transform="matrix(0.1435,-0.9896,0.9896,0.1435,-33.491,116.412)">
        <circle cx="50.51" cy="77.55" r="2.33" style="fill:rgb(164,208,113);"/>
    </g>
    <g transform="matrix(0.2173,-0.9761,0.9761,0.2173,-26.5924,118.463)">
        <ellipse cx="60.57" cy="75.81" rx="2.01" ry="1.86" style="fill:rgb(164,208,113);"/>
    </g>
    <ellipse cx="72.55" cy="82.33" rx="2.22" ry="2.29" style="fill:rgb(164,208,113);"/>
    <ellipse cx="69.19" cy="74.83" rx="1.68" ry="1.76" style="fill:rgb(164,208,113);"/>
    <ellipse cx="62.38" cy="83.1" rx="1.76" ry="1.87" style="fill:rgb(164,208,113);"/>
    <ellipse cx="80.1" cy="76.93" rx="1.64" ry="1.84" style="fill:rgb(164,208,113);"/>
    <g transform="matrix(0.9969,-0.0791,0.0791,0.9969,-6.549,6.7954)">
        <ellipse cx="82.52" cy="86.08" rx="1.48" ry="1.45" style="fill:rgb(164,208,113);"/>
    </g>
    <g transform="matrix(0.2111,-0.9775,0.9775,0.2111,-34.9251,95.6961)">
        <ellipse cx="41.82" cy="69.48" rx="1.76" ry="1.55" style="fill:rgb(164,208,113);"/>
    </g>
    <g transform="matrix(0.2087,-0.978,0.978,0.2087,-24.8379,108.039)">
        <ellipse cx="54.34" cy="69.37" rx="1.62" ry="1.48" style="fill:rgb(164,208,113);"/>
    </g>
</svg>
